X:1
T:A Major William Billings, 1779
T:Isaac Watts, 1709 (Hymn 60, Book 2)      88. 88. (L. M.) 
T:Brest
T:Transcribed from Music in Miniature, 1779.
%%score [ ( 1 2 ) ( 3 4 ) ]
L:1/8
Q:1/4=200
M:2/2
K:A
V:1 treble nm="S.\nA." snm="S.\nA."
V:2 treble 
V:3 bass nm="T.\nB." snm="T.\nB."
V:4 bass 
V:1
"^1. Praise, everlasting praise, be paid     To him that earth's foundation laid;   Praise to the God whose strong decrees   Sway the creation as he please.""^2. Praise to the goodness of the Lord,  Who rules his people by his word,    And there, as strong as his decrees,  He  sets  his  kindest  pro – mi – ses." A4 | %1
 A4 B4 | c4 e4 | (d2 c2) B4 | A4 A4 | B4 c4 | e4 c4 | d4 c4 | B4 B4 | c4 A4 | B4 c4 | e4 c4 | %12
 d4 d4 | c4 B4 | c4 e4 | (d2 c2) B4 | A8 |] %17
V:2
 E4 | F4 G4 | A4 A4 | F4 E4 | E4 E4 | E4 (E2 A2) | G4 F4 | F4 E4 | E4 E4 | E4 F4 | G4 A4 | G4 F4 | %12
 F4 F4 | E4 E4 | E4 A4 | F4 E4 | E8 |] %17
V:3
"^3. Firm are the words his prophets give,  Sweet words on which his children live;  Each of them is the voice of God, Who spoke, and spread the skies abroad.""^4. Each of them powerful as that sound    That bid the new-made world go round;  And stronger than the solid poles On which the wheel of na–ture  rolls.""^______________________________________________\nEdited by B. C. Johnston, 2016\n   1. Converted to \"European\" harmony: \nSoprano\n is original \nTenor\n, up an octave. \nAlto\n is original \nCounter\n.\n    \n     Tenor\n is original \nTreble\n, down an octave. \nBass\n is unchanged.\n   2. Words supplied; original (1779) had none." A,4 | %1
 C4 E4 | E4 C4 | (B,2 A,2) G,4 | A,4 A,4 | G,4 A,4 | B,4 A,4 | A,4 C4 | E4 E4 | A,4 C4 | E4 C4 | %11
 B,4 A,4 | A,4 A,4 | A,4 (B,2 G,2) | A,4 C4 | (B,2 A,2) G,4 | A,8 |] %17
V:4
 A,4 | F,4 E,4 | A,4 A,4 | D,4 E,4 | A,,4 A,,4 | E,4 A,4 | E,4 F,4 | D,4 A,,4 | E,4 E,4 | A,4 F,4 | %10
 E,4 A,4 | E,4 F,4 | D,4 D,4 | A,4 (A,2 E,2) | A,4 A,4 | D,4 E,4 | A,,8 |] %17

